X:762
T:Null Thar Nan Eileanan
T:Over the Isles to America
T:America
R:Reel
C:Jenny Cameron
B:The Athole Collection
M:C|
L:1/8
K:A
=g|fedf ecAc|ecAc e2 e=g|1 fedf ef=ge dBGB d2d:|2 af=ge fd=ge|B=GGB d2d||
|:=g|a2 (ec ecA=g|a2 (ec e2 (e=g|1 a2 (fd ecAc|B=GGB d2d:|2 af=ge fd=ge|
B=GGB d2d|]

